assets/img/tribe.svg

<svg fill="none" height="34" viewBox="0 0 72 34" width="72" xmlns="http://www.w3.org/2000/svg" xmlns:xlink="http://www.w3.org/1999/xlink"><clipPath id="a"><path d="m.019531 0h71.9709v34h-71.9709z"/></clipPath><g clip-path="url(#a)" fill="#96ff94"><path d="m6.2525 6.94304h2.51113c.29147 0 .51568.2104.51568.48391v22.65965c0 .2735.22421.4839.51568.4839h3.07161c.2915 0 .5157-.2104.5157-.4839v-22.65965c0-.27351.2242-.48391.5157-.48391h2.4887c.2915 0 .5157-.21039.5157-.48391v-2.52475c0-.27351-.2242-.48391-.5157-.48391h-10.1342c-.29148 0-.51568.2104-.51568.48391v2.52475c0 .27352.2242.48391.51568.48391z"/><path d="m30.9155 14.8329c.0897-.3577.1345-1.4517.1345-3.2822v-3.15592c0-3.30322-2.2196-4.94431-6.6365-4.94431h-4.3273c-.2914 0-.5156.2104-.5156.48391v26.08912c0 .2735.2242.4839.5156.4839h3.0717c.2915 0 .5157-.2104.5157-.4839v-9.8045c0-.547.8071-.6732.9865-.1472l3.4752 10.099c.0673.1893.2691.3366.4709.3366l3.0716.0421c.3588 0 .6054-.3156.4933-.6312l-4.4169-12.4765c-.0897-.2735.0897-.5891.4035-.6312 1.4574-.1683 2.4888-.9257 2.7578-1.9777zm-3.9461-2.5668c0 .547-.269.9678-.7847 1.2623-.5157.2946-1.0762.4629-1.6816.4629h-.3587c-.2915 0-.5157-.2104-.5157-.4839v-6.45916c0-.27351.2242-.48391.5157-.48391h.3587c.6054 0 1.1659.16832 1.6816.48391.5157.3156.7847.73639.7847 1.28342z"/><path d="m35.5789 30.5495h3.0717c.2914 0 .5156-.2104.5156-.4839v-26.13122c0-.27351-.2242-.48391-.5156-.48391h-3.0717c-.2915 0-.5157.2104-.5157.48391v26.15222c0 .2525.2242.4629.5157.4629z"/><path d="m48.0674 3.45047h-5.2689c-.2915 0-.5157.2104-.5157.48391v26.15222c0 .2735.2242.4839.5157.4839h5.2689c1.9955 0 3.4528-.3997 4.3721-1.1782.9192-.7785 1.3677-2.0408 1.3677-3.8082v-5.5334c0-2.2512-1.3677-3.4926-4.1255-3.724v-.1262c2.7354-.5471 4.1255-1.9357 4.1255-4.208v-3.55564c0-1.76733-.4485-3.02971-1.3453-3.80817-.9192-.79951-2.3766-1.17822-4.3945-1.17822zm1.6143 22.02843c0 1.1783-.5157 1.7674-1.5246 1.7674h-1.278c-.2915 0-.5157-.2104-.5157-.4839v-8.3949c0-.2735.2242-.4839.5157-.4839h1.3004c1.009 0 1.5246.5681 1.5246 1.7253v5.87zm0-12.7079c0 1.1993-.5157 1.7884-1.5246 1.7884h-1.278c-.2915 0-.5157-.2104-.5157-.4839v-7.02726c0-.27351.2242-.48391.5157-.48391h1.3004c1.009 0 1.5246.58911 1.5246 1.76733v4.43934z"/><path d="m60.78 26.3626v-8.3106c0-.2735.2242-.4839.5157-.4839h3.8116c.2914 0 .5156-.2104.5156-.484v-2.6509c0-.2736-.2242-.484-.5156-.484h-3.8116c-.2915 0-.5157-.2104-.5157-.4839v-5.84898c0-.27351.2242-.48391.5157-.48391h3.9237c.2914 0 .5156-.21039.5156-.48391v-2.73515c0-.27351-.2242-.48391-.5156-.48391h-8.0267c-.2915 0-.5157.2104-.5157.48391v26.17325c0 .2735.2242.4839.5157.4839h8.5423c.2915 0 .5157-.2104.5157-.4839v-2.7772c0-.2735-.2242-.4839-.5157-.4839h-4.4617c-.2691 0-.4933-.2104-.4933-.4629z"/><path d="m.0195312.483911v33.032189c0 .2735.2466298.4839.5381008.4839h70.894768c.2915 0 .5381-.2104.5381-.4839v-33.032189c0-.273515-.2466-.483911-.5381-.483911h-70.894768c-.291471 0-.5381008.210396-.5381008.483911zm70.4014688 32.590389h-68.85443c-.29147 0-.5381-.2104-.5381-.484v-31.18065c0-.27351.24663-.483907.5381-.483907h68.85443c.2915 0 .5381.210397.5381.483907v31.18065c0 .2736-.2242.484-.5381.484z"/></g></svg>

<svg width="72" height="34" viewBox="0 0 72 34" fill="none" xmlns="http://www.w3.org/2000/svg">
<g clip-path="url(#clip0)">
<path d="M6.2525 6.94304H8.76363C9.0551 6.94304 9.27931 7.15344 9.27931 7.42695V30.0866C9.27931 30.3601 9.50352 30.5705 9.79499 30.5705H12.8666C13.1581 30.5705 13.3823 30.3601 13.3823 30.0866V7.42695C13.3823 7.15344 13.6065 6.94304 13.898 6.94304H16.3867C16.6782 6.94304 16.9024 6.73265 16.9024 6.45913V3.93438C16.9024 3.66087 16.6782 3.45047 16.3867 3.45047H6.2525C5.96102 3.45047 5.73682 3.66087 5.73682 3.93438V6.45913C5.73682 6.73265 5.96102 6.94304 6.2525 6.94304Z" fill="#96FF94"/>
<path d="M30.9155 14.8329C31.0052 14.4752 31.05 13.3812 31.05 11.5507V8.39478C31.05 5.09156 28.8304 3.45047 24.4135 3.45047H20.0862C19.7948 3.45047 19.5706 3.66087 19.5706 3.93438V30.0235C19.5706 30.297 19.7948 30.5074 20.0862 30.5074H23.1579C23.4494 30.5074 23.6736 30.297 23.6736 30.0235V20.219C23.6736 19.672 24.4807 19.5458 24.6601 20.0718L28.1353 30.1708C28.2026 30.3601 28.4044 30.5074 28.6062 30.5074L31.6778 30.5495C32.0366 30.5495 32.2832 30.2339 32.1711 29.9183L27.7542 17.4418C27.6645 17.1683 27.8439 16.8527 28.1577 16.8106C29.6151 16.6423 30.6465 15.8849 30.9155 14.8329ZM26.9694 12.2661C26.9694 12.8131 26.7004 13.2339 26.1847 13.5284C25.669 13.823 25.1085 13.9913 24.5031 13.9913H24.1444C23.8529 13.9913 23.6287 13.7809 23.6287 13.5074V7.04824C23.6287 6.77473 23.8529 6.56433 24.1444 6.56433H24.5031C25.1085 6.56433 25.669 6.73265 26.1847 7.04824C26.7004 7.36384 26.9694 7.78463 26.9694 8.33166V12.2661Z" fill="#96FF94"/>
<path d="M35.5789 30.5495H38.6506C38.942 30.5495 39.1662 30.3391 39.1662 30.0656V3.93438C39.1662 3.66087 38.942 3.45047 38.6506 3.45047H35.5789C35.2874 3.45047 35.0632 3.66087 35.0632 3.93438V30.0866C35.0632 30.3391 35.2874 30.5495 35.5789 30.5495Z" fill="#96FF94"/>
<path d="M48.0674 3.45047H42.7985C42.507 3.45047 42.2828 3.66087 42.2828 3.93438V30.0866C42.2828 30.3601 42.507 30.5705 42.7985 30.5705H48.0674C50.0629 30.5705 51.5202 30.1708 52.4395 29.3923C53.3587 28.6138 53.8072 27.3515 53.8072 25.5841V20.0507C53.8072 17.7995 52.4395 16.5581 49.6817 16.3267V16.2005C52.4171 15.6534 53.8072 14.2648 53.8072 11.9925V8.43686C53.8072 6.66953 53.3587 5.40715 52.4619 4.62869C51.5427 3.82918 50.0853 3.45047 48.0674 3.45047ZM49.6817 25.4789C49.6817 26.6572 49.166 27.2463 48.1571 27.2463H46.8791C46.5876 27.2463 46.3634 27.0359 46.3634 26.7624V18.3675C46.3634 18.094 46.5876 17.8836 46.8791 17.8836H48.1795C49.1885 17.8836 49.7041 18.4517 49.7041 19.6089V25.4789H49.6817ZM49.6817 12.771C49.6817 13.9703 49.166 14.5594 48.1571 14.5594H46.8791C46.5876 14.5594 46.3634 14.349 46.3634 14.0755V7.04824C46.3634 6.77473 46.5876 6.56433 46.8791 6.56433H48.1795C49.1885 6.56433 49.7041 7.15344 49.7041 8.33166V12.771H49.6817Z" fill="#96FF94"/>
<path d="M60.78 26.3626V18.052C60.78 17.7785 61.0042 17.5681 61.2957 17.5681H65.1073C65.3987 17.5681 65.6229 17.3577 65.6229 17.0841V14.4332C65.6229 14.1596 65.3987 13.9492 65.1073 13.9492H61.2957C61.0042 13.9492 60.78 13.7388 60.78 13.4653V7.61632C60.78 7.34281 61.0042 7.13241 61.2957 7.13241H65.2194C65.5108 7.13241 65.735 6.92202 65.735 6.6485V3.91335C65.735 3.63984 65.5108 3.42944 65.2194 3.42944H57.1927C56.9012 3.42944 56.677 3.63984 56.677 3.91335V30.0866C56.677 30.3601 56.9012 30.5705 57.1927 30.5705H65.735C66.0265 30.5705 66.2507 30.3601 66.2507 30.0866V27.3094C66.2507 27.0359 66.0265 26.8255 65.735 26.8255H61.2733C61.0042 26.8255 60.78 26.6151 60.78 26.3626Z" fill="#96FF94"/>
<path d="M0.0195312 0.483911V33.5161C0.0195312 33.7896 0.266161 34 0.557632 34H71.4524C71.7439 34 71.9905 33.7896 71.9905 33.5161V0.483911C71.9905 0.210396 71.7439 0 71.4524 0H0.557632C0.266161 0 0.0195312 0.210396 0.0195312 0.483911ZM70.421 33.0743H1.56657C1.2751 33.0743 1.02847 32.8639 1.02847 32.5903V1.40965C1.02847 1.13614 1.2751 0.925743 1.56657 0.925743H70.421C70.7125 0.925743 70.9591 1.13614 70.9591 1.40965V32.5903C70.9591 32.8639 70.7349 33.0743 70.421 33.0743Z" fill="#96FF94"/>
</g>
<defs>
<clipPath id="clip0">
<rect width="71.9709" height="34" fill="white" transform="translate(0.0195312)"/>
</clipPath>
</defs>
</svg>
